!!!COM: Music21
!!!OTL: Alalá
!!!OMV: pezas_alalas_alala-33_alala-partitura.musicxml
**kern
*I"Voz
*I'Ch
*clefG2
*k[]
*M3/4
*MM64
=1
!LO:TX:a:t=[quarter]=64
4r
4cc
4dd
=
2ee
4cc
=
2ff
4dd
=
2ee
4dd
=
2ff
4dd
=
2ee
4cc
=
2dd
4ee
=
12ddL
12ee
12ddJ
[2cc
=
2.cc]
!!linebreak:original
=||
*M3/4
*MM64
!LO:TX:a:t=[quarter]=64
4r
4cc
4dd
=
2ee
4cc
=
2ff
4dd
=
2ee
4dd
=
2ff
4dd
=
2ee
4cc
=
2dd
4ee
=
12ddL
12ee
12ddJ
[2cc
=
2.cc]
=||
*-
